static/img/kroki/84bfea57f8cc6cbe50c8028e17a2dffa.svg

<?xml version="1.0" encoding="us-ascii" standalone="no"?><svg xmlns="http://www.w3.org/2000/svg" xmlns:xlink="http://www.w3.org/1999/xlink" contentStyleType="text/css" height="374px" preserveAspectRatio="none" style="width:221px;height:374px;" version="1.1" viewBox="0 0 221 374" width="221px" zoomAndPan="magnify"><defs/><g><!--class gcp_resource--><g id="elem_gcp_resource"><rect codeLine="23" fill="#3D176E" height="39.7891" id="gcp_resource" rx="2.5" ry="2.5" style="stroke:#000D19;stroke-width:0.5;" width="150" x="35.5" y="167.79"/><ellipse cx="50.5" cy="187.6845" fill="#ADD1B2" rx="11" ry="11" style="stroke:#181818;stroke-width:1.0;"/><path d="M53.4688,193.3252 Q52.8906,193.622 52.25,193.7627 Q51.6094,193.9189 50.9063,193.9189 Q48.4063,193.9189 47.0781,192.2783 Q45.7656,190.622 45.7656,187.497 Q45.7656,184.372 47.0781,182.7158 Q48.4063,181.0595 50.9063,181.0595 Q51.6094,181.0595 52.25,181.2158 Q52.9063,181.372 53.4688,181.6689 L53.4688,184.3877 Q52.8438,183.8095 52.25,183.5439 Q51.6563,183.2627 51.0313,183.2627 Q49.6875,183.2627 49,184.3408 Q48.3125,185.4033 48.3125,187.497 Q48.3125,189.5908 49,190.6689 Q49.6875,191.7314 51.0313,191.7314 Q51.6563,191.7314 52.25,191.4658 Q52.8438,191.1845 53.4688,190.6064 L53.4688,193.3252 Z " fill="#000000"/><text fill="#D9B8FF" font-family="Helvetica" font-size="17" lengthAdjust="spacing" textLength="108" x="69.5" y="193.5698">gcp_resource</text></g><!--class gcp_resource_policy--><g id="elem_gcp_resource_policy"><rect codeLine="26" fill="#3D176E" height="39.7891" id="gcp_resource_policy" rx="2.5" ry="2.5" style="stroke:#000D19;stroke-width:0.5;" width="207" x="7" y="328.58"/><ellipse cx="22" cy="348.4745" fill="#ADD1B2" rx="11" ry="11" style="stroke:#181818;stroke-width:1.0;"/><path d="M24.9688,354.1152 Q24.3906,354.412 23.75,354.5527 Q23.1094,354.7089 22.4063,354.7089 Q19.9063,354.7089 18.5781,353.0683 Q17.2656,351.412 17.2656,348.287 Q17.2656,345.162 18.5781,343.5058 Q19.9063,341.8495 22.4063,341.8495 Q23.1094,341.8495 23.75,342.0058 Q24.4063,342.162 24.9688,342.4589 L24.9688,345.1777 Q24.3438,344.5995 23.75,344.3339 Q23.1563,344.0527 22.5313,344.0527 Q21.1875,344.0527 20.5,345.1308 Q19.8125,346.1933 19.8125,348.287 Q19.8125,350.3808 20.5,351.4589 Q21.1875,352.5214 22.5313,352.5214 Q23.1563,352.5214 23.75,352.2558 Q24.3438,351.9745 24.9688,351.3964 L24.9688,354.1152 Z " fill="#000000"/><text fill="#D9B8FF" font-family="Helvetica" font-size="17" lengthAdjust="spacing" textLength="165" x="41" y="354.3598">gcp_resource_policy</text></g><!--class resource--><g id="elem_resource"><rect codeLine="29" fill="#3D176E" height="39.7891" id="resource" rx="2.5" ry="2.5" style="stroke:#000D19;stroke-width:0.5;" width="113" x="54" y="7"/><ellipse cx="69" cy="26.8945" fill="#ADD1B2" rx="11" ry="11" style="stroke:#181818;stroke-width:1.0;"/><path d="M71.9688,32.5352 Q71.3906,32.832 70.75,32.9727 Q70.1094,33.1289 69.4063,33.1289 Q66.9063,33.1289 65.5781,31.4883 Q64.2656,29.832 64.2656,26.707 Q64.2656,23.582 65.5781,21.9258 Q66.9063,20.2695 69.4063,20.2695 Q70.1094,20.2695 70.75,20.4258 Q71.4063,20.582 71.9688,20.8789 L71.9688,23.5977 Q71.3438,23.0195 70.75,22.7539 Q70.1563,22.4727 69.5313,22.4727 Q68.1875,22.4727 67.5,23.5508 Q66.8125,24.6133 66.8125,26.707 Q66.8125,28.8008 67.5,29.8789 Q68.1875,30.9414 69.5313,30.9414 Q70.1563,30.9414 70.75,30.6758 Q71.3438,30.3945 71.9688,29.8164 L71.9688,32.5352 Z " fill="#000000"/><text fill="#D9B8FF" font-family="Helvetica" font-size="17" lengthAdjust="spacing" textLength="71" x="88" y="32.7798">resource</text></g><!--reverse link resource to gcp_resource--><g id="link_resource_gcp_resource"><path codeLine="32" d="M110.5,65.05 C110.5,95.57 110.5,136.9 110.5,167.46 " fill="none" id="resource-backto-gcp_resource" style="stroke:#FFAF37;stroke-width:2.0;"/><polygon fill="none" points="110.5,47.05,104.5,65.05,116.5,65.05,110.5,47.05" style="stroke:#FFAF37;stroke-width:2.0;"/></g><!--reverse link gcp_resource to gcp_resource_policy--><g id="link_gcp_resource_gcp_resource_policy"><path codeLine="33" d="M110.5,225.84 C110.5,256.36 110.5,297.69 110.5,328.25 " fill="none" id="gcp_resource-backto-gcp_resource_policy" style="stroke:#FFAF37;stroke-width:2.0;"/><polygon fill="none" points="110.5,207.84,104.5,225.84,116.5,225.84,110.5,207.84" style="stroke:#FFAF37;stroke-width:2.0;"/></g><!--SRC=[XP3BJiCm44Nt_WfBNKTAg22DnAP4Gh2f46LVEVOujPBOqTYX2ez_Xz1IEN4VovbxPkwTsIe159hMzRI1fW2qn5PAjmnPGvU8PfURsY2TISdaF9sAZqQxgy2ADK2Ve7u7fpYR4czRnIiDrj8RJtfWl2hHT5hirpjaslvAe9r7vJMpTkaSgg9pu8KHMR6GSafEbyxc8adl8C0C2i034iUnIB8fSjNgujr7Ogq-W2R-qrR6GH0piFYZBgOS22zaSEY_VZRZ2nD2wPBUUhtNVIRKWAF-Uik4sGsqPBNrRQm31EFw5lBWAiWMGgOduUTpCE73wsZ9sms2DHroe9-4V9_eRrfJAzxxydZaMDr_HL4qcYKZWr0_x2O_]--></g></svg>

<svg xmlns="http://www.w3.org/2000/svg" width="221" height="374" viewBox="0 0 221 374"><rect width="150" height="39.789" x="35.5" y="167.79" fill="#3D176E" rx="2.5" ry="2.5" style="stroke:#000d19;stroke-width:.5"/><circle cx="50.5" cy="187.685" r="11" fill="#ADD1B2" style="stroke:#181818;stroke-width:1"/><path d="M53.469 193.325q-.578.297-1.219.438-.64.156-1.344.156-2.5 0-3.828-1.64-1.312-1.657-1.312-4.782t1.312-4.781q1.328-1.656 3.828-1.656.703 0 1.344.156.656.156 1.219.453v2.719q-.625-.578-1.219-.844-.594-.281-1.219-.281-1.343 0-2.031 1.078-.687 1.062-.687 3.156t.687 3.172q.688 1.062 2.031 1.062.625 0 1.219-.265.594-.281 1.219-.86z"/><text x="69.5" y="193.57" fill="#D9B8FF" font-family="Helvetica" font-size="17" textLength="108">gcp_resource</text><rect width="207" height="39.789" x="7" y="328.58" fill="#3D176E" rx="2.5" ry="2.5" style="stroke:#000d19;stroke-width:.5"/><circle cx="22" cy="348.474" r="11" fill="#ADD1B2" style="stroke:#181818;stroke-width:1"/><path d="M24.969 354.115q-.578.297-1.219.438-.64.156-1.344.156-2.5 0-3.828-1.64-1.312-1.657-1.312-4.782t1.312-4.781q1.328-1.656 3.828-1.656.703 0 1.344.156.656.156 1.219.453v2.719q-.625-.579-1.219-.844-.594-.281-1.219-.281-1.343 0-2.031 1.078-.687 1.062-.687 3.156t.687 3.172q.688 1.062 2.031 1.062.625 0 1.219-.265.594-.281 1.219-.86z"/><text x="41" y="354.36" fill="#D9B8FF" font-family="Helvetica" font-size="17" textLength="165">gcp_resource_policy</text><rect width="113" height="39.789" x="54" y="7" fill="#3D176E" rx="2.5" ry="2.5" style="stroke:#000d19;stroke-width:.5"/><circle cx="69" cy="26.895" r="11" fill="#ADD1B2" style="stroke:#181818;stroke-width:1"/><path d="M71.969 32.535q-.578.297-1.219.438-.64.156-1.344.156-2.5 0-3.828-1.64-1.312-1.657-1.312-4.782t1.312-4.781q1.328-1.656 3.828-1.656.703 0 1.344.156.656.156 1.219.453v2.719q-.625-.578-1.219-.844-.594-.281-1.219-.281-1.344 0-2.031 1.078-.687 1.062-.687 3.156t.687 3.172q.688 1.062 2.031 1.062.625 0 1.219-.265.594-.281 1.219-.86z"/><text x="88" y="32.78" fill="#D9B8FF" font-family="Helvetica" font-size="17" textLength="71">resource</text><path fill="none" d="M110.5 65.05v102.41m0-120.41-6 18h12zm0 178.79v102.41m0-120.41-6 18h12z" style="stroke:#ffaf37;stroke-width:2"/></svg>
